lib/flags/m/678.svg

<svg xmlns="http://www.w3.org/2000/svg" fill="none" viewBox="0 0 20 15"><mask id="678_svg__a" width="20" height="15" x="0" y="0" mask-type="alpha" maskUnits="userSpaceOnUse"><path fill="#fff" d="M0 0H20V15H0z"/></mask><g fill-rule="evenodd" clip-rule="evenodd" mask="url(#678_svg__a)"><path fill="#FBCD17" d="M0 0V15H20V0H0Z"/><path fill="#73BE4A" d="M0 0V5H20V0H0zM0 10V15H20V10H0z"/><path fill="#C51918" d="M0 0V15L6.25 7.5L0 0Z"/><path fill="#272727" d="M10.6261 8.66917 9.45695 9.375 9.72363 7.99765 8.75 6.96684 10.0684 6.9111 10.6261 5.625 11.1839 6.9111H12.5L11.5286 7.99765 11.8211 9.375 10.6261 8.66917zM15.6261 8.66917 14.457 9.375 14.7236 7.99765 13.75 6.96684 15.0684 6.9111 15.6261 5.625 16.1839 6.9111H17.5L16.5286 7.99765 16.8211 9.375 15.6261 8.66917z"/></g></svg>

<svg xmlns="http://www.w3.org/2000/svg" fill="none" viewBox="0 0 20 15"><mask id="678_svg__a" width="20" height="15" x="0" y="0" maskUnits="userSpaceOnUse"><path fill="#fff" d="M0 0h20v15H0z"/></mask><g fill-rule="evenodd" clip-rule="evenodd" mask="url(#678_svg__a)"><path fill="#FBCD17" d="M0 0v15h20V0H0z"/><path fill="#73BE4A" d="M0 0v5h20V0H0zm0 10v5h20v-5H0z"/><path fill="#C51918" d="M0 0v15l6.25-7.5L0 0z"/><path fill="#272727" d="M10.626 8.67l-1.169.705.267-1.377-.974-1.031 1.318-.056.558-1.286.558 1.286H12.5l-.971 1.087.292 1.377-1.195-.706zm5 0l-1.169.705.267-1.377-.974-1.031 1.318-.056.558-1.286.558 1.286H17.5l-.971 1.087.292 1.377-1.195-.706z"/></g></svg>
